X:152
T:Prince George's March. JJo8.152
B:J.Johnson Choice Collection Vol 8 1758
Z:vmp.Simon Wilson 2013 www.village-music-project.org.uk
M:C|
L:1/8
Q:1/2=100
K:D
A2FGA2d2|f2ede2A2|B2dBA2de|f2ede4|A2FGA2d2|f2ede2f^g|a2^gfe2Bd|c2B2A4:|
|:f2cde2e2|EFG2TG2F2|EFG2FAd2|{ef}g2f2e3A|a2gfg2A2|g2fef2D2|d2cBA2EG|F2E2D4:|
